T: Greensleeves
Q:200
M: 6/8
L: 1/8
K: C

z4 A2 |
c4 d2 | e3 f  e2 | d4 B2 | A3 G B2 | c4 A2   | A3 _A A2   | B4 _A2 | E4 A2 |
c4 d2 | e3 f  e2 | d4 B2 | G3 A B2 | c3 b A2 | _A3 _G _A2 | A6     | A6    |
g6    | g3 f  e2 | d4 B2 | G3 A B2 | c4 A2   | A3 _A A2   | B4 _A2 | E6    |
g6    | g3 f  e2 | d4 B2 | G3 A B2 | c3 b A2 | _A3 _G _A2 | A6     | A6    ||

